Dominus_Dark_Funeral/22/apps/accessories-calculator.svg

<svg xmlns="http://www.w3.org/2000/svg" width="24" height="24"><defs><linearGradient id="e"><stop offset="0"/><stop offset="1" stop-opacity="0"/></linearGradient><linearGradient id="d"><stop offset="0"/><stop offset="1" stop-opacity="0"/></linearGradient><linearGradient id="c"><stop offset="0"/><stop offset="1" stop-opacity="0"/></linearGradient><linearGradient id="b"><stop offset="0"/><stop offset="1" stop-opacity="0"/></linearGradient><linearGradient id="a"><stop offset="0"/><stop offset="1" stop-opacity="0"/></linearGradient></defs><path d="M.18.19v11.4H11.6V.2H.2zm12.22 0v11.4h11.4V.2H12.4zM5.88 2.63a.81.81 0 0 1 .81.81v1.62h1.64a.82.82 0 1 1 0 1.64H6.69v1.63a.81.81 0 1 1-1.63 0V6.71H3.44a.82.82 0 1 1 0-1.64h1.62V3.44a.81.81 0 0 1 .82-.81zm9.77 2.44h4.9a.82.82 0 1 1 0 1.64h-4.9a.82.82 0 1 1 0-1.64zM.18 12.4v11.41H11.6v-11.4H.2zm12.22 0v11.41h11.4v-11.4H12.4zm-8.56 2.86a.81.81 0 0 1 .58.24l1.46 1.46 1.47-1.46a.81.81 0 1 1 1.15 1.15L7.03 18.1l1.47 1.46a.81.81 0 0 1 0 1.15.81.81 0 0 1-1.15 0l-1.47-1.46-1.46 1.46a.81.81 0 0 1-1.15-1.15l1.46-1.46-1.46-1.46a.81.81 0 0 1 .57-1.39zm11.81.81h4.9a.81.81 0 1 1 0 1.63h-4.9a.81.81 0 1 1 0-1.63zm0 2.43l4.9.01a.81.81 0 1 1 0 1.63h-4.9a.82.82 0 1 1 0-1.64z" fill="#e6e6e6"/></svg>

<?xml version="1.0" encoding="UTF-8" standalone="no"?>
<svg
   xmlns:dc="http://purl.org/dc/elements/1.1/"
   xmlns:cc="http://creativecommons.org/ns#"
   xmlns:rdf="http://www.w3.org/1999/02/22-rdf-syntax-ns#"
   xmlns:svg="http://www.w3.org/2000/svg"
   xmlns="http://www.w3.org/2000/svg"
   xmlns:sodipodi="http://sodipodi.sourceforge.net/DTD/sodipodi-0.dtd"
   xmlns:inkscape="http://www.inkscape.org/namespaces/inkscape"
   width="24"
   height="24"
   version="1.1"
   id="svg31"
   sodipodi:docname="accessories-calculator.svg"
   inkscape:version="0.92.4 (5da689c313, 2019-01-14)">
  <metadata
     id="metadata35">
    <rdf:RDF>
      <cc:Work
         rdf:about="">
        <dc:format>image/svg+xml</dc:format>
        <dc:type
           rdf:resource="http://purl.org/dc/dcmitype/StillImage" />
        <dc:title></dc:title>
      </cc:Work>
    </rdf:RDF>
  </metadata>
  <sodipodi:namedview
     pagecolor="#ffffff"
     bordercolor="#666666"
     borderopacity="1"
     objecttolerance="10"
     gridtolerance="10"
     guidetolerance="10"
     inkscape:pageopacity="0"
     inkscape:pageshadow="2"
     inkscape:window-width="1142"
     inkscape:window-height="480"
     id="namedview33"
     showgrid="false"
     inkscape:zoom="9.8333333"
     inkscape:cx="1.2711864"
     inkscape:cy="12"
     inkscape:window-x="0"
     inkscape:window-y="25"
     inkscape:window-maximized="0"
     inkscape:current-layer="svg31" />
  <defs
     id="defs27">
    <linearGradient
       id="e">
      <stop
         offset="0"
         id="stop2" />
      <stop
         offset="1"
         stop-opacity="0"
         id="stop4" />
    </linearGradient>
    <linearGradient
       id="d">
      <stop
         offset="0"
         id="stop7" />
      <stop
         offset="1"
         stop-opacity="0"
         id="stop9" />
    </linearGradient>
    <linearGradient
       id="c">
      <stop
         offset="0"
         id="stop12" />
      <stop
         offset="1"
         stop-opacity="0"
         id="stop14" />
    </linearGradient>
    <linearGradient
       id="b">
      <stop
         offset="0"
         id="stop17" />
      <stop
         offset="1"
         stop-opacity="0"
         id="stop19" />
    </linearGradient>
    <linearGradient
       id="a">
      <stop
         offset="0"
         id="stop22" />
      <stop
         offset="1"
         stop-opacity="0"
         id="stop24" />
    </linearGradient>
  </defs>
  <path
     d="m 0.18,0.19 v 11.4 H 11.6 V 0.2 H 0.2 Z m 12.22,0 v 11.4 H 23.8 V 0.2 H 12.4 Z M 5.88,2.63 a 0.81,0.81 0 0 1 0.81,0.81 v 1.62 h 1.64 a 0.82,0.82 0 1 1 0,1.64 H 6.69 v 1.63 a 0.815,0.815 0 1 1 -1.63,0 V 6.71 H 3.44 a 0.82,0.82 0 1 1 0,-1.64 H 5.06 V 3.44 A 0.81,0.81 0 0 1 5.88,2.63 Z m 9.77,2.44 h 4.9 a 0.82,0.82 0 1 1 0,1.64 h -4.9 a 0.82,0.82 0 1 1 0,-1.64 z M 0.18,12.4 V 23.81 H 11.6 V 12.41 H 0.2 Z m 12.22,0 V 23.81 H 23.8 V 12.41 H 12.4 Z M 3.84,15.26 A 0.81,0.81 0 0 1 4.42,15.5 L 5.88,16.96 7.35,15.5 A 0.8131728,0.8131728 0 1 1 8.5,16.65 L 7.03,18.1 8.5,19.56 a 0.81,0.81 0 0 1 0,1.15 0.81,0.81 0 0 1 -1.15,0 L 5.88,19.25 4.42,20.71 A 0.8131728,0.8131728 0 0 1 3.27,19.56 L 4.73,18.1 3.27,16.64 a 0.81,0.81 0 0 1 0.57,-1.39 z m 11.81,0.81 h 4.9 a 0.815,0.815 0 1 1 0,1.63 h -4.9 a 0.815,0.815 0 1 1 0,-1.63 z m 0,2.43 4.9,0.01 a 0.815,0.815 0 1 1 0,1.63 h -4.9 a 0.82,0.82 0 1 1 0,-1.64 z"
     id="path29"
     inkscape:connector-curvature="0"
     style="fill:#e6e6e6" />
</svg>
